X:697
T:Jig of slurs
R:Jig
S:O'Neil's abc file
Z:Transcription:?, chords:Mike Long
M:6/8
L:1/8
K:D
B|\
"D"Add dcd|"G"Bdd "D"Add|"G"Bdd "(D)"Add|"A"Bee edB|\
"D"Add dcd|"G"Bdd "D"Add|"G"Bdd "A"cde|"D"fdd d2 :|
|:B|\
"D"Aff fef|aff fed|"G"Bee ede|"A"fed edB|\
"D"Aff fef|aff fed|"G"Bdd "A"cde|"D"fdd d2 :|
|:B|\
"G"Ggg gfg|"D"agf "G"gdB|"G"Ggg gfg|"D"agf "G"g2B|\
"G"Ggg gfg|"D"agf "G"ged|"Em"Bee efg|"D"fed "Em"e2 :|
|:B|\
"G"GBB Bdd|"Em"dee edB|"G"GBB Bdd|"Em"dee efg|\
"G"GBB Bdd|"Em"dee edB|"Bm"Bee efg|"D"fed "Em"e2 :|
